X:1
T: Eight and Forty Sisters
C:
R:Reel
Q: 232
K:Em
M:4/4
L:1/8
|:d^c|BE EF GB AG|((3FED) AD BD AD|GF EF GA B^c|d^c df e2 dc|
BE EF GB AG|((3FED) AD BD AD|GF EF GA B^c|d^c df e2 ef|
gf ef gb ag|fd d^c df af|gf ef gb af|gf ed Be ef|
gf ef gb ag|fd d^c df af|bg af gf ed|B^c df e2:|
